X:117
T:Rory O'More #1
C:Joe Buchanan's Scottish Tome - Page 230.1
I:230 1
Z:Carl Allison
C:AKA Strip the Willows
R:Jig
L:1/8
M:6/8
K:A
f | "A"eAA cBA | "A"eAA A2 f | "A"edc cBA | "E7"GBB Bcd |
"A"eAA cBA | "A"eAA fed | "E7"cee efg | "A"aec A2 :|
e | "A"agf edc | "A"dcB A2 G | "D"F2 G A2 B | "E7"cfe efg |
"A"agf edc | "A"dcB A2 G | "D"F2 G A2 B |1 "A"cfe e2 :|2 "A"cAA A2 |]

